X:1
T:Title
%%score 1 { 2 | 3 }
L:1/8
Q:1/4=94
M:4/4
K:E
V:1 treble nm="Grand Piano, Soprano"
V:2 bass nm="Choir Pad, We Shall Know Each Other"
V:3 bass 
V:1
 [EG]>[EA] [EB]>[EB] [EB]>[Ec] [EB]2 | [EB]>[EA] [EG]>[B,F] [B,E]>[B,D] [B,E]2 | %2
w: By~John~B.~Vaughan * * * * * *||
 [EB]>[EB] [DB]>[DF] [DF]>[EG] [FA]2 | [Dc]>[Dc] [EB]6 | [EG]>[EA] [EB]>[EB] [EB]>[Ec] [EB]2 | %5
w: |||
 [EB]>[EA] [EG]>[B,F] [B,E]>[B,D] [B,E]2 | (3[DB][Ec][Fd] [Ge]>[Ge] [EG]>[Ec] [EB]2 | %7
w: ||
 [EG]>[DF] E6 | (3[DB][Ec][Fd] [Ge]>[Ge] [Bd]>[Ac] [GB]2 | [EG]>[CF] [CE]>[CE] [CE]>[DF] [EG]2 | %10
w: |||
 (3[DB][Ec][Fd] [Ge]>[Ge] [EB]>[Ec] [EG]2 | [EG]>E [DB]6 | %12
w: ||
 (3[DB][Ec][Fd] [Ge]>[Ge] [EB]>[Ec] [EG]2 | [EG]>[DF] [CE]>[CE] [CE]>[DF] [EG]2 | %14
w: ||
 (3[DB][Ec][Fd] [Ge]>[Ge] [EG]>[Ec] [EB]2 | [EG]>[DF] E6- | E2 z2 z4 |] %17
w: |||
V:2
 E,>F, G,>G, G,>A, G,2 | G,>C B,>A, G,>F, G,2 | G,>G, F,>B, B,>B, B,2 | A,>A, G,6 | %4
 E,>F, G,>G, G,>A, G,2 | G,>C B,>A, G,>F, G,2 | (3:2:2B,2 B, B,>B, B,>A, G,2 | B,>A, G,6 | %8
 (3:2:2B,2 B, B,>B,[K:treble] C>D E2 | B,>A,[K:bass] G,>G, G,>B, B,2 | %10
 (3:2:2B,2 B, B,>B, G,>A, B,2 | B,>G, F,6 | (3:2:2B,2 B, B,>B, G,>A, B,2 | B,>A, G,>G, G,>B, B,2 | %14
 (3:2:2B,2 B, B,>B, B,>A, G,2 | B,>A, G,6- | G,2 z2 z4 |] %17
V:3
 z z/ E,/ E,>E, E,>E, E,2 | E,>A,, B,,>B,, B,,>B,, E,2 | E,>E, B,,>B,, B,,>B,, B,,2 | B,,>B,, E,6 | %4
 z z/ E,/ E,>E, E,>E, E,2 | E,>A,, B,,>B,, B,,>B,, E,2 | (3:2:2B,,2 B,, E,>E, E,>A,, B,,2 | %7
 B,,>B,, E,6 | (3:2:2B,,2 B,, E,>E, E,>E, E,2 | E,>B,, C,>C, C,>B,, E,2 | %10
 (3:2:2B,,2 B,, E,>E, E,>E, E,2 | E,>E, B,,6 | (3:2:2B,,2 B,, E,>E, E,>E, E,2 | %13
 E,>B,, C,>C, C,>B,, E,2 | (3:2:2B,,2 B,, E,>E, E,>A,, B,,2 | B,,>B,, E,6- | E,2 z2 z4 |] %17

